X: 828
T: Geçip de Karşıma
C: Ahmed Ağa
O: Turkey
F: http://compmusic.upf.edu/node/140
N: sevkefza--sarki--ciftesofyan--gecip_de_karsima--ahmed_aga
N: makam= sevkefza
N: form= sarki
N: usul= ciftesofyan = 9/8
M: 9/8
L: 1/16
K: C _B _7/8d  
Q: 1/4=174
%%MIDI tuningsystem comma53
c3d efg_7/8a gfef ga_1/4bc' ba | gf efg2 _7/8aggf fef4z2  | 
w:  ARANAĞME  |   | 
c'_1/4bc'2 _7/8aga2 fefa gfed c_1/4B | \
w:   | 
cd ef_7/8g2 feed dcc4z2  | 
w:   | 
=dcBA B2c2 _7/8d2B2 c2B2 A2 | =d6 c_1/4BB_7/8A AGG4z2  | \
w:   |   | 
_7/8AGF2 c4 _1/4Bc=d_e dcBA GF | 
w:   | 
G_7/8A GFc_1/4B AGGF FEF4z2  | c3d efg_7/8a gfef ga_1/4bc' ba | 
w:   |  ARANAĞME  | 
gf efg2 _7/8aggf fef4z2  | c'_1/4bc'2 _7/8aga2 fefa gfed c_1/4B | 
w:   |   | 
cd ef_7/8g2 feed dcc4z2  | =dcBA B2c2 _7/8d2B2 c2B2 A2 | 
w:   |   | 
=d6 c_1/4BB_7/8A AGG4z2  | _7/8AGF2 c4 _1/4Bc=d_e dcBA GF | 
w:   |   | 
G_7/8A GFc_1/4B AGGF FEF4z2  | e2f4g2 g8 z2 | \
w:   |  Ge çip  *  de   | 
g4_7/8a4g2 f2e2 d2c2  | 
w:  kar şı ma   | 
g3f f3e e2d2 e2d2 c2 | c3def g_7/8agf efg4z2  | 
w:  göz *  le *  rin  *  süz  |  me   SAZ  | 
e2f4g2 g8 z2 | g4_7/8a4g2 f2e2 d2c2  | \
w:  Ge çip  *  de   |  kar şı ma   | 
g3f f3e e2d2 e2d2 c2 | 
w:  göz *  le *  rin  *  süz  | 
c6 g_7/8agf fef4z2  | f2f6 f4 g2f2 e2 | \
w:  me   SAZ  |  Ba rış mam   | 
e4e4f2 e2d2 c2B2  | 
w:  boş  ye re   | 
B4 B4 B2_7/8A2 A4 G2 | G3_1/4B_7/8A2 G2GF FEF6  | \
w:  ar kam dan  *  gez  |  me  *  *  a man_ *  a *  man    | 
f2f6 f4 g2f2 e2 | 
w:  Ba rış mam   | 
e4e4f2 e2d2 c2B2  | B4 B4 B2_7/8A2 A4 G2 | \
w:  boş  ye re   |  ar kam dan  *  gez  | 
G3_1/4B_7/8A2 G2GF FEF6  | 
w:  me  *  *  a man_ *  a *  man    | 
c8 d2c2 g2f2 e2 | e3dd2 c2c4_1/4B6  | \
w:  Yok  sa  |  na  *  mey *  lim   | 
z2c4d2 e2f2 g6 | _7/8ag a_1/4bg2 f2e2 d2c4z2  | 
w:  ken *  di *  ni   |  üz *  *  *  *  *  me    | 
c8 d2c2 g2f2 e2 | e3dd2 c2c4_1/4B6  | \
w:  Yok  sa  |  na  *  mey *  lim   | 
z2c4d2 e2f2 g6 | g3_1/4b_7/8a2 g2gf fef4z2  | 
w:  ken *  di *  ni   |  üz *  *  *  me    | 
e2f14 e2 | e2 g4 fee8d2  | d2f4ed d8 c2 | \
w:  Of   |  of   |  of   | 
c2 e4 dcc4f4z2  | 
w:  a man_ a *  man    | 
e2f14 e2 | e2 g4 fee8d2  | d2f4ed d8 c2 | \
w:  Of   |  of   |  of   | 
c2 e4 dcc4f4z2  | 
w:  a man_ a *  man    | 
f2f6 f4 g2f2 e2 | e4e4f2 e2d2 c2B2  | \
w:  Ba rış mam   |  boş  ye re   | 
B4 B4 B2_7/8A2 A4 G2 | G3_1/4B_7/8A2 G2GF FEF6  | 
w:  ar kam dan  *  gez  |  me  *  *  a man_ *  a *  man    | 
f2f6 f4 g2f2 e2 | e4e4f2 e2d2 c2B2  | \
w:  Ba rış mam   |  boş  ye re   | 
B4 B4 B2_7/8A2 A4 G2 | G3_1/4B_7/8A2 G2GF FEF6  | 
w:  ar kam dan  *  gez  |  me  *  *  a man_ *  a *  man    | 
|


